X:10
T:Idir Deighric 'gus Breo'
T:Idir Deighric agus Breo
R:air
Z:id:hn-air-10
M:6/8
L:1/8
Q:3/8=60
K:Amix
A>BA A>GA | c>de f2a | g<ec d2B/A/ | G2E G2E/G/ |
A>BA A>GA | c>de f2a/f/ | g<ec d2B//A//G/ | A3 A3 :|
|: a>ba g>ag | f>ed c2d | ea/e/f/g/ f>ed | e>cA G2E/G/ | 
A>BA A>GA | c>de f2a/f/ | g<ec d2B//A//G/ | A3 A3 :|  

